X: 2
T: Castle Kelly
R: reel
M: 4/4
L: 1/8
K: Amin
|:A3 G ABcA|GE{G}E^F G2 EG|A2 cA GAcd|1 egdB cAAG:|2 egdB cAAg||
age^c dfed|cAGE G2 eg|age^c d2 =cd|eaag a3 a|
age^c dfed|cAGE G2 EG A2 cA GAcd|1egdB cAAa:|2 egdB cAAG||


Tune 21	Setting 12399

